build/svg/cmd/lc_intersect.svg

<?xml version="1.0" encoding="UTF-8" standalone="no"?>
<svg
   xmlns:dc="http://purl.org/dc/elements/1.1/"
   xmlns:cc="http://creativecommons.org/ns#"
   xmlns:rdf="http://www.w3.org/1999/02/22-rdf-syntax-ns#"
   xmlns:svg="http://www.w3.org/2000/svg"
   xmlns="http://www.w3.org/2000/svg"
   xmlns:sodipodi="http://sodipodi.sourceforge.net/DTD/sodipodi-0.dtd"
   xmlns:inkscape="http://www.inkscape.org/namespaces/inkscape"
   viewBox="0 0 24 24"
   version="1.1"
   id="svg6"
   sodipodi:docname="lc_intersect.svg"
   inkscape:export-filename="/home/jupiter007/Libreoffice yaru theme fullcolor/build/cmd/lc_intersect.png"
   inkscape:export-xdpi="96"
   inkscape:export-ydpi="96"
   inkscape:version="0.92.5 (2060ec1f9f, 2020-04-08)">
  <metadata
     id="metadata12">
    <rdf:RDF>
      <cc:Work
         rdf:about="">
        <dc:format>image/svg+xml</dc:format>
        <dc:type
           rdf:resource="http://purl.org/dc/dcmitype/StillImage" />
      </cc:Work>
    </rdf:RDF>
  </metadata>
  <defs
     id="defs10" />
  <sodipodi:namedview
     pagecolor="#ffffff"
     bordercolor="#666666"
     borderopacity="1"
     objecttolerance="10"
     gridtolerance="10"
     guidetolerance="10"
     inkscape:pageopacity="0"
     inkscape:pageshadow="2"
     inkscape:window-width="1920"
     inkscape:window-height="1011"
     id="namedview8"
     showgrid="true"
     inkscape:zoom="27.812867"
     inkscape:cx="7.3971779"
     inkscape:cy="12.374151"
     inkscape:window-x="0"
     inkscape:window-y="32"
     inkscape:window-maximized="1"
     inkscape:current-layer="svg6">
    <inkscape:grid
       type="xygrid"
       id="grid850" />
  </sodipodi:namedview>
  <path
     inkscape:connector-curvature="0"
     style="opacity:1;fill:#6d6d6d;fill-opacity:1;stroke:none;stroke-width:2;stroke-linejoin:round;stroke-miterlimit:4;stroke-dasharray:none;stroke-opacity:1"
     d="m 4,9.0000001 c -0.554,0 -1,0.446 -1,0.9999999 v 10 c 0,0.554 0.446,1 1,1 h 10 c 0.554,0 1,-0.446 1,-1 V 10 C 15,9.4460001 14.554,9.0000001 14,9.0000001 Z M 4,10 H 14 V 20 H 4 Z"
     id="rect823" />
  <path
     inkscape:connector-curvature="0"
     style="opacity:1;fill:#6d6d6d;fill-opacity:1;stroke:none;stroke-width:2.33333325;stroke-linejoin:round;stroke-miterlimit:4;stroke-dasharray:none;stroke-opacity:1"
     d="M 14,3.0000001 A 7,7 0 0 0 7,10 a 7,7 0 0 0 7,7 7,7 0 0 0 7,-7 7,7 0 0 0 -7,-6.9999999 z m 0,1 A 6,6 0 0 1 20,10 6,6 0 0 1 14,16 6,6 0 0 1 8,10 6,6 0 0 1 14,4.0000001 Z"
     id="circle841" />
  <path
     style="opacity:1;fill:#fee581;fill-opacity:1;stroke:none;stroke-width:2;stroke-linejoin:round;stroke-miterlimit:4;stroke-dasharray:none;stroke-opacity:1"
     d="m 8,10 c 0,3.313708 2.686292,6 6,6 v -6 z"
     id="circle856"
     inkscape:connector-curvature="0"
     sodipodi:nodetypes="cccc" />
</svg>

<svg xmlns="http://www.w3.org/2000/svg" viewBox="0 0 24 24"><path d="M4 9c-.554 0-1 .446-1 1v10c0 .554.446 1 1 1h10c.554 0 1-.446 1-1V10c0-.554-.446-1-1-1zm0 1h10v10H4z" fill="#6d6d6d"/><path d="M14 3a7 7 0 00-7 7 7 7 0 007 7 7 7 0 007-7 7 7 0 00-7-7zm0 1a6 6 0 016 6 6 6 0 01-6 6 6 6 0 01-6-6 6 6 0 016-6z" fill="#6d6d6d"/><path d="M8 10a6 6 0 006 6v-6z" fill="#fee581"/></svg>
